X: 14834
T: Garech's Wedding
R: slip jig
M: 9/8
K: Eminor
B|:E3 e2B G2B|A3 A2G A2B|E3 G2B e2f|1 gfe fed B2e:|2 gfe fed e2f||
g2B BAB g2e|f2A AGA f2a|g2B BAB g2e|1 fdd add fga:|2 BcB AGF E2||

